src/assets/images/user.svg

<svg fill="none" height="19" viewBox="0 0 16 19" width="16" xmlns="http://www.w3.org/2000/svg"><g fill="#1d1e24" opacity=".5"><path d="m7.69743 9.49999c.97156 0 1.9213-.27858 2.72907-.80052.8079-.52193 1.4375-1.26378 1.8093-2.13173s.4691-1.82301.2795-2.74442c-.1895-.92141-.6574-1.76778-1.3444-2.43208-.687-.664295-1.56224-1.116688-2.51513-1.299968-.95289-.1832797-1.94058-.08921389-2.83818.270302-.89761.359516-1.6648.968336-2.20457 1.749466-.53976.78113-.82786 1.6995-.82786 2.63896.0013 1.25939.51926 2.46684 1.4402 3.35736.92095.89053 2.16965 1.39138 3.47207 1.39263zm0-7.91666c.64771 0 1.28086.18573 1.81941.53368.53856.34796.95826.84253 1.20616 1.42116s.3127 1.21534.1864 1.82961c-.1264.61428-.4383 1.17852-.8963 1.62139-.458.44286-1.04152.74446-1.67678.86664-.63526.12219-1.29372.05948-1.89212-.1802-.5984-.23967-1.10986-.64555-1.46971-1.16631-.35984-.52075-.55191-1.133-.55191-1.7593 0-.83985.34503-1.64531.95918-2.23917.61416-.59387 1.44713-.9275 2.31567-.9275z"/><path d="m7.69654 11.0833c-1.95356.002-3.82649.7534-5.20786 2.0891-1.38138 1.3358-2.158388 3.1468-2.160555 5.0358 0 .21.086257.4114.239795.5598.153539.1485.361782.2319.57892.2319.21713 0 .42538-.0834.57891-.2319.15354-.1484.2398-.3498.2398-.5598 0-1.4697.6038-2.8792 1.67857-3.9185s2.53247-1.6231 4.05242-1.6231 2.97766.5838 4.05246 1.6231c1.0747 1.0393 1.6785 2.4488 1.6785 3.9185 0 .21.0863.4114.2398.5598.1536.1485.3618.2319.5789.2319.2172 0 .4254-.0834.579-.2319.1535-.1484.2398-.3498.2398-.5598-.0022-1.889-.7792-3.7-2.1606-5.0358-1.3814-1.3357-3.2543-2.0871-5.20786-2.0891z"/></g></svg>

<svg width="16" height="19" viewBox="0 0 16 19" fill="none" xmlns="http://www.w3.org/2000/svg">
<g opacity="0.5">
<path d="M7.69743 9.49999C8.66899 9.49999 9.61873 9.22141 10.4265 8.69947C11.2344 8.17754 11.864 7.43569 12.2358 6.56774C12.6076 5.69979 12.7049 4.74473 12.5153 3.82332C12.3258 2.90191 11.8579 2.05554 11.1709 1.39124C10.4839 0.726945 9.60866 0.274552 8.65577 0.091272C7.70288 -0.0920077 6.71519 0.00205811 5.81759 0.361574C4.91998 0.72109 4.15279 1.32991 3.61302 2.11104C3.07326 2.89217 2.78516 3.81054 2.78516 4.75C2.78646 6.00939 3.30442 7.21684 4.22536 8.10736C5.14631 8.99789 6.39501 9.49874 7.69743 9.49999ZM7.69743 1.58333C8.34514 1.58333 8.97829 1.76906 9.51684 2.11701C10.0554 2.46497 10.4751 2.95954 10.723 3.53817C10.9709 4.1168 11.0357 4.75351 10.9094 5.36778C10.783 5.98206 10.4711 6.5463 10.0131 6.98917C9.5551 7.43203 8.97158 7.73363 8.33632 7.85581C7.70106 7.978 7.0426 7.91529 6.4442 7.67561C5.8458 7.43594 5.33434 7.03006 4.97449 6.5093C4.61465 5.98855 4.42258 5.3763 4.42258 4.75C4.42258 3.91015 4.76761 3.10469 5.38176 2.51083C5.99592 1.91696 6.82889 1.58333 7.69743 1.58333Z" fill="#1D1E24"/>
<path d="M7.69654 11.0833C5.74298 11.0853 3.87005 11.8367 2.48868 13.1724C1.1073 14.5082 0.330292 16.3192 0.328125 18.2082C0.328125 18.4182 0.414382 18.6196 0.56792 18.768C0.721459 18.9165 0.929702 18.9999 1.14684 18.9999C1.36397 18.9999 1.57222 18.9165 1.72575 18.768C1.87929 18.6196 1.96555 18.4182 1.96555 18.2082C1.96555 16.7385 2.56935 15.329 3.64412 14.2897C4.71889 13.2504 6.17659 12.6666 7.69654 12.6666C9.21649 12.6666 10.6742 13.2504 11.749 14.2897C12.8237 15.329 13.4275 16.7385 13.4275 18.2082C13.4275 18.4182 13.5138 18.6196 13.6673 18.768C13.8209 18.9165 14.0291 18.9999 14.2462 18.9999C14.4634 18.9999 14.6716 18.9165 14.8252 18.768C14.9787 18.6196 15.065 18.4182 15.065 18.2082C15.0628 16.3192 14.2858 14.5082 12.9044 13.1724C11.523 11.8367 9.6501 11.0853 7.69654 11.0833Z" fill="#1D1E24"/>
</g>
</svg>
